media/img/firefox/nothing-personal/heart-sticker.svg

<svg width="95" height="88" viewBox="0 0 95 88" fill="none" xmlns="http://www.w3.org/2000/svg">
<path fill-rule="evenodd" clip-rule="evenodd" d="M22.3305 5.63478C28.4024 2.79799 35.3622 2.48232 41.6841 4.72775C47.5364 6.80641 52.4285 10.9329 55.441 16.3192C58.0578 15.2789 60.8346 14.6805 63.6566 14.549C66.9759 14.3943 70.2959 14.8883 73.4284 16.0009C76.561 17.1136 79.4487 18.8244 81.9268 21.0382C84.4049 23.2522 86.427 25.9279 87.8738 28.9159C89.3213 31.9027 90.1655 35.1436 90.3528 38.4543C90.5403 41.7662 90.0666 45.0801 88.9567 48.2049C87.8468 51.3297 86.1241 54.1999 83.8895 56.6516C81.655 59.1031 78.9547 61.0859 75.9463 62.4905L37.676 80.3705C34.3617 81.9189 30.4182 80.5183 28.8232 77.2261L10.4051 39.2102C7.48104 33.1749 7.08069 26.2342 9.32324 19.9204C11.5658 13.6066 16.2546 8.47347 22.3305 5.63478ZM37.2056 17.3366C34.1709 16.2588 30.8556 16.4208 27.9943 17.7576C25.1371 19.0925 22.9664 21.487 21.9321 24.3988C20.8979 27.3107 21.0718 30.538 22.4469 33.3761L37.9888 65.4554L70.2839 50.3671L70.2853 50.3664C71.701 49.7054 72.9621 48.777 74.0003 47.638C75.0382 46.4992 75.8351 45.17 76.3478 43.7264C76.8606 42.2828 77.0807 40.7488 76.9936 39.2104C76.9065 37.6718 76.5136 36.1558 75.8321 34.7499L75.8307 34.7471C75.1497 33.3406 74.1932 32.0719 73.0122 31.0168C71.831 29.9616 70.4506 29.1428 68.95 28.6098C67.4493 28.0768 65.8617 27.8414 64.2796 27.9151C62.6976 27.9888 61.1551 28.37 59.7395 29.0318L55.1489 31.1765C51.8346 32.7249 47.8911 31.3243 46.2961 28.0321L44.0876 23.4737C42.7106 20.6315 40.2403 18.4145 37.2056 17.3366Z" fill="white"/>
<path d="M82.459 31.5643C81.3951 29.3671 79.9058 27.3949 78.0762 25.7603C76.2466 24.1258 74.1125 22.861 71.7959 22.0382C69.4793 21.2154 67.0255 20.8506 64.5748 20.9649C62.1241 21.0791 59.7244 21.67 57.5129 22.7039L52.9237 24.8479L50.7152 20.2894C48.5657 15.8527 44.7299 12.4267 40.0516 10.765C35.3733 9.10336 30.2357 9.3422 25.7691 11.429C21.3025 13.5158 17.8728 17.2796 16.2344 21.8924C14.596 26.5053 14.8831 31.5893 17.0327 36.026L19.2412 40.5845L35.4508 74.0419L69.1334 58.3054L73.7225 56.1613C75.9345 55.1285 77.9153 53.6729 79.5516 51.8776C81.1879 50.0824 82.4477 47.9827 83.259 45.6985C84.0703 43.4143 84.4172 40.9903 84.2799 38.5652C84.1427 36.14 83.5239 33.7611 82.459 31.5643Z" fill="#FF4F5F" stroke="#333336" stroke-width="2" stroke-linecap="round" stroke-linejoin="round"/>
</svg>

<svg width="95" height="88" fill="none" xmlns="http://www.w3.org/2000/svg"><path fill-rule="evenodd" clip-rule="evenodd" d="M22.33 5.635a25.545 25.545 0 0 1 19.354-.907 25.563 25.563 0 0 1 13.757 11.591 25.446 25.446 0 0 1 8.216-1.77 25.636 25.636 0 0 1 18.27 6.49 25.427 25.427 0 0 1 5.947 7.877 25.126 25.126 0 0 1 2.479 9.538 24.918 24.918 0 0 1-6.463 18.198 25.128 25.128 0 0 1-7.944 5.838l-38.27 17.88a6.69 6.69 0 0 1-8.853-3.144L10.405 39.21a25.017 25.017 0 0 1-1.082-19.29A25.018 25.018 0 0 1 22.331 5.635Zm14.876 11.702a12.165 12.165 0 0 0-9.212.42 11.637 11.637 0 0 0-6.062 6.642 11.637 11.637 0 0 0 .515 8.977l15.542 32.08 32.295-15.089h.001A11.748 11.748 0 0 0 74 47.637a11.54 11.54 0 0 0 2.994-8.428 11.749 11.749 0 0 0-1.162-4.46l-.001-.003a12.044 12.044 0 0 0-2.819-3.73 12.257 12.257 0 0 0-8.732-3.102 12.043 12.043 0 0 0-4.54 1.117l-4.591 2.145a6.69 6.69 0 0 1-8.853-3.145l-2.208-4.558a12.165 12.165 0 0 0-6.882-6.137Z" fill="#fff"/><path d="M82.459 31.564a18.736 18.736 0 0 0-4.383-5.804 18.946 18.946 0 0 0-13.501-4.795c-2.45.114-4.85.705-7.062 1.739l-4.59 2.144-2.208-4.559a18.855 18.855 0 0 0-10.663-9.524 18.855 18.855 0 0 0-14.283.664 18.327 18.327 0 0 0-9.535 10.463 18.327 18.327 0 0 0 .799 14.134l2.208 4.558 16.21 33.458 33.682-15.737 4.59-2.144a18.437 18.437 0 0 0 5.829-4.283 18.228 18.228 0 0 0 4.728-13.313 18.438 18.438 0 0 0-1.821-7Z" fill="#FF4F5F" stroke="#333336" stroke-width="2" stroke-linecap="round" stroke-linejoin="round"/></svg>
